static/assets/img/icons/theme/weather/temperature-half.svg

<svg height="24" viewBox="0 0 24 24" width="24" xmlns="http://www.w3.org/2000/svg"><g fill="none" fill-rule="evenodd"><path d="m0 0h24v24h-24z" opacity="0"/><path d="m18 16c0 3.3137085-2.6862915 6-6 6s-6-2.6862915-6-6c0-2.2208471 1.20659589-4.1598786 3-5.1973068v-5.8026932c0-1.65685425 1.3431458-3 3-3s3 1.34314575 3 3v5.8026932c1.7934041 1.0374282 3 2.9764597 3 5.1973068zm-6-12c-.5522847 0-1 .44771525-1 1v5c0 .5522847.4477153 1 1 1s1-.4477153 1-1v-5c0-.55228475-.4477153-1-1-1z" fill="#000" fill-rule="nonzero"/></g></svg>

<svg width="24px" height="24px" viewBox="0 0 24 24" version="1.1" xmlns="http://www.w3.org/2000/svg" xmlns:xlink="http://www.w3.org/1999/xlink">
    <title>Icon For Temperature-half</title>
    <g stroke="none" stroke-width="1" fill="none" fill-rule="evenodd">
        <polygon points="0 0 24 0 24 24 0 24" opacity="0"></polygon>
        <path d="M18,16 C18,19.3137085 15.3137085,22 12,22 C8.6862915,22 6,19.3137085 6,16 C6,13.7791529 7.20659589,11.8401214 9,10.8026932 L9,5 C9,3.34314575 10.3431458,2 12,2 C13.6568542,2 15,3.34314575 15,5 L15,10.8026932 C16.7934041,11.8401214 18,13.7791529 18,16 Z M12,4 C11.4477153,4 11,4.44771525 11,5 L11,10 C11,10.5522847 11.4477153,11 12,11 C12.5522847,11 13,10.5522847 13,10 L13,5 C13,4.44771525 12.5522847,4 12,4 Z" fill="#000000" fill-rule="nonzero"></path>
    </g>
</svg>
